Numix-GalliumOS/16/status/telegram-attention-panel.svg

<?xml version="1.0" encoding="UTF-8" standalone="no"?>
<svg
   xmlns:dc="http://purl.org/dc/elements/1.1/"
   xmlns:cc="http://creativecommons.org/ns#"
   xmlns:rdf="http://www.w3.org/1999/02/22-rdf-syntax-ns#"
   xmlns:svg="http://www.w3.org/2000/svg"
   xmlns="http://www.w3.org/2000/svg"
   xmlns:sodipodi="http://sodipodi.sourceforge.net/DTD/sodipodi-0.dtd"
   xmlns:inkscape="http://www.inkscape.org/namespaces/inkscape"
   width="16"
   viewBox="0 0 4.5155557 4.5155557"
   height="16"
   id="svg2"
   version="1.1"
   inkscape:version="0.91 r"
   sodipodi:docname="telegram-attention-panel.svg">
  <metadata
     id="metadata12">
    <rdf:RDF>
      <cc:Work
         rdf:about="">
        <dc:format>image/svg+xml</dc:format>
        <dc:type
           rdf:resource="http://purl.org/dc/dcmitype/StillImage" />
        <dc:title />
      </cc:Work>
    </rdf:RDF>
  </metadata>
  <sodipodi:namedview
     pagecolor="#ffffff"
     bordercolor="#666666"
     borderopacity="1"
     objecttolerance="10"
     gridtolerance="10"
     guidetolerance="10"
     inkscape:pageopacity="0"
     inkscape:pageshadow="2"
     inkscape:window-width="1366"
     inkscape:window-height="747"
     id="namedview10"
     showgrid="true"
     inkscape:zoom="8"
     inkscape:cx="6.2898079"
     inkscape:cy="18.973906"
     inkscape:window-x="0"
     inkscape:window-y="21"
     inkscape:window-maximized="1"
     inkscape:current-layer="svg2">
    <inkscape:grid
       type="xygrid"
       id="grid3815" />
  </sodipodi:namedview>
  <defs
     id="defs4" />
  <path
     style="fill:#54cdee;fill-opacity:1"
     d="m 3.7742056,0.87324943 c -0.02991,-0.00336 -0.062993,0.002465 -0.096204,0.0176378 L 0.7690209,2.0193158 C 0.57047757,2.0994315 0.57174782,2.2109827 0.73294423,2.2606352 L 1.4793299,2.4951399 3.2074013,1.3983795 c 0.081578,-0.049767 0.1564525,-0.023201 0.095002,0.031668 L 1.9022284,2.7007824 1.8625441,3.031494 1.6593124,2.3812947 1.4793299,2.4951399 c 0.087796,0.279119 0.1735525,0.559137 0.2625579,0.8378029 0.028284,0.074703 0.099973,0.094913 0.1631466,0.097009 C 2.0003715,3.4331153 2.159976,3.300072 2.1599762,3.300072 L 2.4165212,3.0832053 3.1192141,3.6055294 C 3.2580799,3.6826118 3.3583992,3.6425285 3.3929957,3.47565 L 3.8884482,1.1273963 C 3.9264852,0.9739804 3.8639356,0.88333245 3.7742056,0.87324943 Z M 2.0918312,2.841886 2.2473617,2.9573344 2.0585606,3.1168779 2.0918312,2.841886 Z"
     id="path88"
     inkscape:connector-curvature="0" />
</svg>

<svg xmlns="http://www.w3.org/2000/svg" width="16" viewBox="0 0 4.5155557 4.5155557" height="16">
 <path d="m 3.774 0.873 c -0.03 -0.003 -0.063 0.002 -0.096 0.018 l -2.909 1.128 c -0.199 0.08 -0.197 0.192 -0.036 0.241 l 0.746 0.235 1.728 -1.097 c 0.082 -0.05 0.156 -0.023 0.095 0.032 l -1.4 1.271 -0.04 0.331 -0.203 -0.65 -0.18 0.114 c 0.088 0.279 0.174 0.559 0.263 0.838 0.028 0.075 0.1 0.095 0.163 0.097 c 0.095 0.003 0.255 -0.13 0.255 -0.13 l 0.257 -0.217 0.703 0.522 c 0.139 0.077 0.239 0.037 0.274 -0.13 l 0.495 -2.348 c 0.038 -0.153 -0.025 -0.244 -0.114 -0.254 m -1.682 1.969 0.156 0.115 -0.189 0.16 0.033 -0.275" style="fill:#54cdee;fill-opacity:1"/>
</svg>
